!! NEW WORK
!! No. 31
**kern
*clefF4
*k[f#]
*M2/4
*MM76
=
8G
8G
8G
8G
*M5/8
=
16A
16G
8G
8G
8G
8G
*M2/4
=
8G
8d
16e
16d
16d
16A
=
8d
8d
8A
8A
=
8d
16e
16d
16B
16A
16A
16G
=
8A
8A
8G
8G
=
8G
8G
8A
16A
16G
=
8A
8F#
8G
8G
=
8G
8G
8A
16A
16G
*M5/8
=
8A
8F#
16A
16G
8G
8G
*M3/8
=
16A
16G
8G
8r
*M2/4
=
16A
16G
8G
16A
16G
8G
=
8G
8d
16e
16d
16d
16A
=
8d
8d
8A
8A
=
8d
16e
16d
16B
16A
16B
16A
=
8A
8A
8G
8G
=
8G
8G
8A
16A
16G
=
8A
8F#
8G
8r
*M3/4
=
8G
8G
8A
16A
16G
8A
8F#
*M3/8
=
16A
16G
8G
16G
16D
=
16A
16G
8G
16G
16D
*M2/4
=
8A
8G
8A
16A
16r
=
8A
16G
16F#
16A
16G
16A
16G
=
8A
8A
8G
8G
=
8G
8G
8A
16A
16G
=
8A
8A
8G
8G
=
8G
8G
8A
16A
16G
=
8A
8F#
8G
8G
=
8G
8G
8A
16A
16G
*M5/8
=
8A
8F#
16G
16G
8G
8r
*M3/8
=
16A
16G
8G
16G
16r
*M3/4
=
16A
16G
8G
16A
16G
8G
8G
8F#
=
8A
16A
16G
8A
8A
8G
8r
*M2/4
=
8G
8G
8A
16A
16G
=
8A
8A
8G
8G
=
8G
8G
8A
16A
16G
=
8A
8F#
8G
8G
*M3/4
=
8G
8G
8A
8G
8A
8F#
*M3/8
=
8G
8G
16G
16D
*M2/4
=
4G
8G
8r
=
16A
16G
8G
16A
16G
8G
=
!! NEW WORK
!! No. 32
**kern
*clefF4
*k[b-e-a-d-]
*M3/4
*MM88
=
8F
8F
8F
8F
8F
8r
=
8F
8f
8f
8f
8f
16g
16f
=
4e-
8B-
8B-
8B-
8c
=
8A-
8A-
8F
8F
8F
8B-
=
8A-
8A-
8F
8F
8F
8A-
=
8A-
8A-
8F
8F
8r
8B-
*M2/4
=
8B-
8B-
8B-
8B-
*M3/4
=
8c
8c
16A-
16F
8F
8F
8F
*M2/4
=
8B-
8A-
8A-
16A-
16F
*M3/8
=
16A-
16F
8F
8B-
*M2/4
=
8A-
8A-
8F
8F
=
8F
8A-
8A-
8A-
=
8F
8F
8r
8B-
=
8B-
8B-
8B-
8B-
*M3/4
=
8c
8A-
16A-
16F
8F
8F
8F
=
8B-
8A-
16A-
16F
8F
8F
8F
=
8B-
8A-
16A-
16F
8F
8F
8r
=
8B-
8A-
8A-
8F
8F
8F
*M2/4
=
8A-
8A-
8A-
8F
=
8F
8f
8f
8f
=
8f
16g
16f
8e-
8e-
*M3/4
=
8B-
8B-
8B-
16c
16B-
8A-
8A-
=
8F
8F
8F
16A-
16F
8A-
8A-
*M2/4
=
8F
8F
8r
16A-
16F
*M7/8
=
8B-
8B-
8B-
8B-
16c
16B-
8A-
8A-
*M3/4
=
8F
8A-
8A-
8A-
8B-
8A-
*M5/8
=
8F
8F
8F
8F
8r
*M3/4
=
16A-
16F
8F
8F
8A-
8F
8F
=
!! NEW WORK
!! No. 33
**kern
*clefF4
*k[]
*M7/8
!! The "voice meter" is marked quarter-note = 168 by Densmore
!! and the "drum meter" is marked quarter-note = 84;
!! The "voice meter" seems questionable since there are 32nd notes
!! in the notation:  At 168, a 32nd note would be just 5 milliseconds!
*MM84
=
8G
8G
8G
8G
8G
8G
8G
*M2/4
=
!! "A"
8e
16e
16e
16f
16e
16e
16d
*M3/4
=
8c
16d
16c
16c
16B
16A
16G
16F
16r
8A
*M6/8
=
8G
8G
8A
8G
8G
8A
*M5/8
=
8F
8F
8F
8r
8c
*M6/8
=
8G
8G
8A
8A
8G
8A
=
8G
8G
8A
8A
8G
8A
=
8G
16G
16A
8A
8G
8A
=
16c
16G
8A
8G
8F
8F
8r
*M2/4
=
!! "B"
8c
8c
8c
16.A
32A
=
4A
8A
8A
=
8c
8G
8G
16.A
32G
*M5/8
=
4G
8G
8G
8G
*M2/4
=
8c
8c
8c
16.A
32A
=
4A
8A
8A
=
8c
8G
8G
16.A
32G
=
4G
8G
8r
*M3/4
=
8c
8G
8G
16.A
32G
4A
=
8G
8G
8G
8G
8G
8r
*M7/8
=
16A
16G
8G
8G
8G
16A
16G
8G
8G
=
!! NEW WORK
!! No. 34
**kern
*clefF4
*k[]
*M3/4
*MM100
=
8.G
16G
8.G
16G
8.G
16G
!! missing change of meter here
*M2/4
=
!! "A"
8.f
16f
8e;
8d
=
8.A
16A
12A
12G
12G
=
8.d
16d
8d;
8c
*M3/4
=
8.d
16d
12d
12c
12A
8.G
16A
*M2/4
=
8.c
16c
8.c
16A
=
8.A
16A
8.A
16c
*M3/4
=
8.G
16G
8.G
16G
8G
8r
=
12c
12G
12G
8.G
16G
12A
12G
12G
*M2/4
=
!! "B"
16A
8.d
12c
12B
12A
=
12G
12G
12G
12A
12G
12G
=
8.G
16G
12A
12A
12G
=
8.A
16A
4G
=
16A
8.d
12c
12B
12A
=
12G
12G
12G
12A
12G
12G
=
8.G
16G
12A
12A
12G
=
8.A
16A
4G
=
!! NEW WORK
!! No. 35
**kern
*clefF4
*k[]
*M3/4
*MM88
=
8G
8G
8G
8G
8G
8G
=
!! "A"
8g
8g
8g
8g
8g
8g
*M2/4
=
16f
16e
16e
16e
8d
8d
*M3/4
=
8g
8g
8d
8d
8d
8d
*M2/4
=
16d
16c
16c
16A
8A
8r
*M3/4
=
8d
8d
8c
8c
8A
8A
*M5/8
=
16A
16G
8G
8G
8G
16G
16r
*M3/4
=
8c
8c
8A
8A
8A
8A
*M2/4
=
8A
8B
16A
16G
8G
=
8G
8G
8G
8r
*M3/4
=
16B
16G
8G
8G
8A
8G
8G
*M2/4
=
!! "B"
16A
8.A
16e
16d
16c
16c
=
16d
16c
16c
16A
8G
8G
=
16A
8.A
16e
16d
16d
16c
=
16d
16c
16c
16A
4G
=
*MM112
8.A
16A
4B
=
8.B
16B
8A
8G
*M3/4
=
*MM88
8A
8A
16A
16G
8G
8G
16G
16r
=
16B
16G
8G
8G
8A
8G
8G
=
*-
!! NEW WORK
!! No. 36
**kern
*clefF4
*k[b-e-a-d-g-]
*M3/4
*MM92
=
8.A-
16A-
8.A-
16A-
8.A-
16A-
=
!! "A"
8.e-
16e-
12e-
12d-
12e-
8.d-
16d-
*M2/4
=
8.e-
16e-
8.e-
16e-
=
12e-
12d-
12A-
8.A-
16A-
=
8.d-
16A-
8.A-
16A-
=
8.A-
16F
8.A-
16A-
=
8.d-
16d-
12d-
12A-
12A-
=
8.A-
16A-
8.A-
16A-
=
12A-
12A-
12A-
8.A-
8A-
*M5/8
=
12A-
12A-
12A-
8.A-
16A-
8A-
*M2/4
=
12d-
12A-
12A-
8A-
8r
=
8.d-
16d-
12d-
12A-
12A-
=
8.A-
16A-
8.A-
16A-
=
8.A-
16A-
12A-
12A-
12A-
*M3/4
=
12A-
12A-
12A-
12A-
12A-
12A-
8A-
8r
=
8.A-
16A-
8.A-
16d-
16A-
16A-
8r
*M2/4
=
8.A-
16A-
8.A-
16A-
=
8.A-
16A-
8A-
8r
*M3/4
=
8.d-
16A-
8.A-
16A-
12B-
12A-
12A-
*M2/4
=
8.d-
16A-
8.A-
16A-
*M5/8
=
12B-
12A-
12A-
8A-
8r
8A-
*M2/4
=
!! "B"
!! note should have a double augmentation dot (added)
4..d-;
16f
*M3/4
=
12d-
12d-
12A-
8.A-
16A-
4A-
*M2/4
=
8.B-
16A-
12A-
12A-
12A-
*M3/4
=
8.A-
16B-
8.A-
16F
8A-
8r
*M2/4
=
8.A-
16d-
8.d-
16e-
=
12d-
12d-
12A-
8.A-
16A-
*M3/4
=
8.A-
16A-
12A-
12A-
12A-
8.A-
16A-
=
8.A-
16A-
8.A-
16F
8A-
8r
*M2/4
=
8.A-
16d-
8.d-
16e-
=
12d-
12d-
12A-
8.A-
16A-
*M3/4
=
8.A-
16A-
12A-
12A-
12A-
8.A-
16A-
=
8.A-
16A-
8.A-
16F
8A-
8r
*M2/4
=
!! "A" slightly changed
16e-
8.e-
12e-
12d-
12d-
=
8.e-
16e-
8.e-
16e-
=
12e-
12d-
12A-
8.A-
16A-
=
8.d-
16A-
12A-
12A-
12A-
=
8.A-
16F
8A-
8r
=
8.d-
16d-
12d-
12A-
12A-
=
8.A-
16A-
12A-
12A-
12A-
=
8.A-
16A-
12A-
12A-
12A-
=
12A-
12A-
12A-
12A-
12A-
12A-
=
8.A-
16A-
12A-
12A-
12A-
=
4r
16d-
16A-
8A-
=
8.A-
16A-
8.A-
16A-
=
8.A-
16A-
8A-
8r
=
8.d-
16A-
8.A-;
16A-
=
4A-
4A-
=
!! NEW WORK
!! No. 37
**kern
*clefF4
*k[b-]
*M2/4
*MM80
=
16G
16F
8F
16G
8.F
=
16G
16F
8F
8F
8F
=
8F
8F
16G
16F
8F
=
!! "A"
8c
16d
16c
16d
16c
16B-
16A
*M3/4
=
8B-
8B-
8B-
8B-
16G
16F
8F
*M2/4
=
8B-
8B-
8B-
8A
=
8B-
8B-
8B-
16B-
16r
=
8B-
8B-
8A-
8A-
=
8B-
8B-
8A-
8A-
=
8B-
8B-
16c
16B-
16.A
32A
*M3/4
=
4B-
8B-
16B-
16r
8B-
8B-
*M2/4
=
8d
8d
16c
16B-
8B-
=
16B-
8.B-
8B-
8B-
*M3/4
=
16c
16B-
8B-
8c
8c
8.B-
16B-
*M5/8
=
16c
16B-
8B-
8B-
8B-
8r
*M2/4
=
8B-
8B-
8B-
8B-
=
4B-
16G
16F
8F
=
8c
16d
16c
16d
16c
16B-
16A
*M3/4
=
8B-
8B-
8B-
8B-
16G
16F
8F
*M2/4
=
8B-
8B-
8B-
8A
=
8B-
8B-
8B-
16B-
16r
=
8B-
8B-
8A-
8A-
=
8B-
8B-
8A-
8A-
=
8B-
8B-
16c
16B-
16.A
32A
*M3/4
=
4B-
8B-
8B-
8B-
8B-
*M2/4
=
8d
8d
16c
16B-
8B-
=
16B-
8.B-
8B-
8B-
*M3/4
=
16c
16B-
8B-
8c
8c
8.B-
16B-
=
16c
16B-
8B-
8B-
8B-
8B-
8B-
=
8B-
8B-
8B-
16B-
32r
32B-
4c
=
!! "B"
*k[b-e-a-d-g-]
8f
8f
8f
8f
16f
16e-
16e-
16d-
=
16e-
16B-
8B-
8B-
8B-
16f
16e-
16e-
16d-
=
8d-
16d-
16A-
8B-
8.B-
16A-
8B-
16B-
16r
*M2/4
=
16f
16.d-
32d-
4f
=
16f
16e-
8e-
16e-
16d-
8d-
*M3/4
=
8d-
16B-
16B-
16B-
16A-
8A-
8B-
16B-
16r
*M2/4
=
16e-
16.B-
32B-
4e-
*M3/4
=
8d-
8d-
8d-
24e-
24d-
24B-
16B-
8.A-
=
16e-
16d-
8d-
8d-
16.d-
32B-
16d-
8.B-
*M2/4
=
32B-
16.A-
8A-
8A-
8A-
=
16A-
16F
8F
8F
8r
=
8A-
8F
4r
*M3/4
=
8F
8F
8F
16r
16B-
4c
*M2/4
=
32B-
16.A-
8A-
8A-
16A-
16r
=
16A-
16F
16.F
32F
4F
=
!! "C"
16A-
16F
8F
16F
16F
8F
=
8F
8F
8F
8F
=
16A-
16F
8F
8B-
8B-
=
4B-
8B-
8B-
=
16A-
16F
8F
8B-
16B-
16A-
=
4B-
8B-
8B-
*M3/4
=
8d-
16d-
16B-
8B-
8B-
8.B-
16B-
=
16d-
16B-
8B-
8B-
8B-
8r
8B-
*M7/8
=
8B-
8B-
4B-
8.B-
16d-
8d-
*M3/4
=
!! "B"
8f
8f
8f
8f
16f
16e-
16e-
16d-
=
16e-
16B-
8B-
8B-
8B-
16f
16e-
16e-
16B-
=
8d-
16.d-
32A-
8B-
16.B-
32A-
8B-
16B-
16r
*M2/4
=
8f
16.d-
32d-
4f
=
16f
16e-
8e-
16e-
16d-
8d-
*M3/4
=
16d-
16B-
8B-
16B-
16A-
8A-
8B-
16B-
16r
*M2/4
=
8e-
16.B-
32B-
4e-
*M3/4
=
8d-
8d-
16d-
24e-
24d-
24B-
16B-
8.A-
=
16e-
16d-
8d-
8d-
16.d-
32B-
16d-
8.B-
*M2/4
=
32B-
16.A-
8A-
8A-
16A-
16r
=
8B-
16.A-
32A-
8A-
8A-
=
16A-
16F
8F
8F
8r
=
8A-
8F
4r
=
8F
8F
4F
=
!! NEW WORK
!! No. 38
**kern
*clefF4
*k[f#c#g#d#a#]
*M2/4
*MM138
=
!! "A"
8d#
8c#
4B
=
8d#
8c#
4c#
=
8d#
8c#
8c#
8B
=
16B
[8.G#
4G#]
=
8c#
8B
4B
=
4B
8.G#
16G#
=
4F#
4G#
*M3/4
=
8G#
8F#
4F#
4G#
*M2/4
=
*MM96
12d#
12c#
12c#
4c#
=
12c#
12B
12B
8B
8B
=
4G#
4F#
*M3/4
*M138
=
4G#
8G#
8F#
4E
*M2/4
=
8.F#
16F#
4F#
*M3/4
=
8B
8G#
8G#
8F#
4E
*M2/4
=
12F#
12F#
12F#
4F#
=
*k[f#c#g#]
8B
8A
4A
*M3/4
=
8c#
8B
4B
8.A
16F#
*M2/4
=
12B
12A
12A
8F#
16F#
16r
=
!! "B"
*MM152
8B
8A
4B
=
4A
4B
=
8B
8A
4A
=
4A
4B
=
8B
8A
4A
=
4A
4B
=
8B
8A
4A
=
4A
4B
=
4B
4B
=
8B
8A
4A
=
4B
4B
*M3/4
=
*MM108
8.A
16F#
12B
12A
12A
8F#
16r
16F#
*M2/4
=
4A
8.A
16A
=
8.F#
16F#
4F#
=
8F#
8F#
8F#
8F#
=
4F#
4F#
=
2r
=
!! "C"
*MM104
4F#
4f#
=
8a
16a
16a
4a
=
12a
12g#
12f#
4f#
=
4e
4c#
=
12c#
12B
12B
4B
=
4G#
4F#
=
!! NEW WORK
!! No. 39
**kern
*clefF4
*k[b-]
*M2/4
*MM160
=
!! "A"
8d
8c
4c
=
8d
8c
8c
8B-
=
16B-
[8.G
4G]
=
*MM132
8.G
16G
4G
=
4F
4G
=
4F
4F
=
*MM160
8A
8G
4G
=
4A
4G
=
16A
[8.G
4G]
=
*MM132
8.G
16G
4G
=
4F
4F
*M3/4
=
*MM160
16A
8.G
16G
8.F
4E
*M2/4
=
8F
8F
4F
*M3/4
=
16A
8.G
16G
8.F
4E
*M2/4
=
8F
8F
8F
8r
*M3/4
=
16A
8.G
16G
8.F
4E
*M2/4
=
8F
8F
4F
=
!! "B"
*MM144
8A
8A
4G
=
4A
4A
=
8.G
16F
4G
=
4F
4F
=
4A
16A
8.G
=
*MM132
12A
12G
12G
4G
=
4F
8F
8r
*M3/4
=
*MM144
4G
16G
8.F
4E
*M2/4
=
8F
8F
4F
*M3/4
=
16A
8.G
16G
8.F
4E
*M2/4
=
8F
8F
4F
=
8A
8A
4G
=
4A
4A
=
8.G
16F
4G
=
4F
8.F
16F
*M3/4
=
4G
8.G
16F
8.E
16E
*M2/4
=
8F
8F
4F
*M3/4
=
4F
4r
4F
*M2/4
=
!! "C"
*MM160
8c
8c
4c
=
4c
4c
=
16A
[8.G
4G]
=
*MM132
8G
8G
4G
=
4F
4G
=
4F
8F
8r
=
*MM160
4G
4G
=
4A
4G
=
16A
[8.G
4G]
=
*MM132
8G
8G
4G
=
4F
4F
*M3/4
=
16A
8.G
16G
8.F
4E
*M2/4
=
8F
8F
4F
*M3/4
=
16A
8.G
16G
8.F
4E
*M2/4
=
8F
8F
8F
8r
*M3/4
=
16A
8.G
16G
8.F
4E
*M2/4
=
8F
8F
4F
=
!! "B"
*MM144
8A
8A
4G
=
4A
4A
=
8.G
16F
4G
=
4F
8F
8r
=
4A
8A
8G
=
*MM132
12A
12G
12G
4G
=
4F
8F
8r
*M3/4
=
*MM144
4G
8.G
16F
4E
*M2/4
=
8F
8F
4F
=
8A
8A
4G
=
4A
4A
=
8.G
16F
4G
=
4F
8.F
16r
*M3/4
=
4G
8.G
16F
8.E
16E
*M2/4
=
8F
8F
4F
=
2r
=
!! "D"
8G
8F
4F
=
4F
4e
=
*MM132
4f
8f
8e
=
4f
4f
=
4f
12f
12d
12c
*M3/4
=
4c
4c
4c
*M2/4
=
*MM160
4a
4g
=
4g
4f
=
4g
4f
=
4d
4c
=
8d
8d
4c
=
16c
8.c
4A
=
*MM132
12A
12G
12G
4G
=
4F
8F
8r
=
4G
16G
8.G
=
4F
4F
=
*MM160
4c
4A
=
4G
4A
=
8A
8G
4G
=
4G
4A
=
*MM132
12A
12G
12G
8G
8F
=
*MM160
8G
8F
4F
=
4F
8.F
16F
=
4G
4F
=
4r
8F
8F
=
*M3/4
8.G
16G
8F
8r
8.F
16F
*M2/4
=
8G
8F
8.F
16G
=
4f
4f
=
4f
4g
=
*MM132
8g
8f
4d
=
*MM160
4c
4c
=
8c
8G
8G
8G
=
4B-
4B-
=
4B-
4c
=
*MM132
12c
12B-
12B-
4G
*M3/4
=
*MM160
4G
8G
8F
8F
8r
*M2/4
=
*MM132
4F
4F
=
4F
8.F
16F
=
*MM160
8G
8F
4F
=
8G
8F
8G
8F
=
!! NEW WORK
!! No. 40
**kern
*clefF4
*k[b-e-a-d-g-]
*M2/4
*MM126
=
8A-
8A-
4A-
=
4A-
8A-
8f
*M3/4
=
4a-
8f
8d-
4d-
=
8e-
8e-
4.e-
8f
=
4a-
8f
8d-
4d-
*M2/4
=
8d-
8d-
8d-
8d-
=
4d-
8r
8e-
*M3/4
=
4e-
8e-
8d-
4d-
=
8e-
8e-
4.e-
8d-
*M2/4
=
4e-
8e-
8d-
=
4d-
8d-
8d-
=
4d-
8e-
8d-
=
4A-
4A-
=
2d-
*M3/4
=
4d-
4d-
4r
=
!! NEW WORK
!! No. 41
**kern
*clefF4
*k[b-e-a-]
*M3/4
*MM84
=
4e-
4e-
8.e-
16c
=
4e-
4e-
8e-
16r
16e-
*M2/4
=
!! "A"
4g
16g
16e-
8e-
=
4e-
16e-
16B-
8B-
=
8.c
16c
8B-
8r
=
4e-
16e-
8B-
16B-
=
8G
8G
4E-
*M3/4
=
8G
8E-
8E-
16G
16G
8E-
16r
16G
*M2/4
=
4c
8c
16B-
16B-
=
4G
4E-
=
16G
16G
16G
16G
8E-
16r
16G
=
4c
16c
8B-
16G
=
16B-
8.G
8E-
8r
=
8G
8E-
8G
16E-
16E-
*M3/4
=
8B-
16G
16B-
16B-
8.G
8E-
16r
16E-
*M2/4
=
4c
32c
16.G
8B-
*M3/4
=
4G
8E-
8E-
8E-
8r
*M2/4
=
16G#
8.E-
4E-
=
16G
8.E-
4E-
=
8r
8E-
8E-
16r
16E-
=
!! "B"
4g
16g
16e-
8e-
=
4e-
16e-
16B-
16B-
16r
=
4c
16c
16B-
8B-
=
8B-
8G
8E-
8E-
=
8G
8G
8E-
8r
=
16G
16E-
8E-
16G
8.E-
=
8G
8G
8E-
8r
=
16G
16E-
8E-
16E-
8.E-
=
8G
16B-
16G
8E-
16r
16E-
=
4c
16c
8G
16B-
=
8G
8G
8E-
16r
16E-
=
4c
16c
8G
16B-
=
8G
8G
8E-
8r
=
8G
16E-
16E-
8G
8E-
*M5/8
=
8B-
16B-
16G
8B-
8B-
8G
=
16G
16E-
8E-
4E-
8r
*M2/4
=
16G
8.E-
4E-
=
16G
8.E-
4E-
=
8r
8E-
8E-
16r
16E-
=
8r
8E-
8.E-
16E-
=
4g
16g
16e-
8e-
=
4e-
16e-
16B-
8B-
=
8.c
16c
8B-
8r
=
4e-
16e-
8G
16B-
=
8G
8G
4E-
*M3/4
=
8G
8E-
16G
16G
16G
16G
8E-
16r
16G
*M2/4
=
4c
8c
16B-
16B-
=
4G
4E-
=
16G
16G
16G
16G
8E-
16r
16G
!! change of meter notated here, but no real change
=
4c
16c
8B-
16G
=
16B-
8.G
8E-
8r
=
8G
8E-
8G
16E-
16E-
*M3/4
=
8B-
16G
16B-
16B-
8.G
8E-
16r
16E-
*M2/4
=
4c
32c
16.G
8B-
*M3/4
=
4G
8E-
8E-
8E-
8r
*M2/4
=
16G
8.E-
4E-
=
!! "C"
8B-
8B-
16G
16G
16E-
16E-
*M3/4
=
8G
8B-
16G
8.E-
8E-
8r
*M2/4
=
8E-
8G
8E-
8C
=
8E-
8E-
8E-
8E-
*M3/4
=
8E-
8B-
16B-
8.G
8E-
8r
=
16G
16E-
8E-
16G
16E-
16.E-
32E-
8G
8B-
=
8E-
8E-
8E-
8E-
8E-
8E-
=
!! NEW WORK
!! No. 42
**kern
*clefF4
*k[f#c#g#d#a#]
*M3/4
*MM84
=
4B
4B
8.B
16G#
=
4B
4B
8B
8r
*M2/4
=
!! "A"
4B
4B
=
4G#
16B
16r
8r
=
8B
8A#
16B
8.G#
=
4F#
16G#
16r
8r
=
8B
8A#
16B
8.G#
=
4F#
4D#
=
8D#
16F#
16D#
4BB
=
8D#
16F#
16D#
4BB
*M3/4
=
8D#
16F#
16D#
4BB
16D#
16BB
8r
*M2/4
=
!! "B"
4B
16G#
16F#
8G#
=
8G#
8F#
8D#
16F#
16r
*M3/4
=
16G#
16F#
16D#
16D#
8BB
8BB
8BB
8BB
*M2/4
=
8.D#
16BB
8.F#
16D#
*M3/4
=
16F#
16D#
[8BB
8BB]
[8BB
8BB]
8r
*M2/4
=
16D#
8.BB
4BB
=
16D#
8.BB
4BB
=
8r
8BB
4BB
=
!! "A"
4B
4B
=
4G#
16B
16r
8r
=
8B
8A#
16B
8.G#
=
4F#
16G#
16r
8r
=
8B
8A#
16B
8.G#
=
4F#
4D#
=
8D#
16F#
16D#
4BB
=
8D#
16F#
16D#
4BB
*M3/4
=
8BB
16F#
16D#
4BB
16D#
16BB
8r
*M2/4
=
!! "B"
4B
16G#
16F#
8G#
=
8G#
8F#
8D#
16F#
16r
*M3/4
=
16G#
16F#
16D#
16D#
8BB
8BB
8D#
16D#
16BB
*M2/4
=
!! dot appears to be on the wrong note (corrected)
16D#
8.BB
16F#
8.D#
*M3/4
=
16F#
16D#
8BB
8BB
8BB
8BB
8r
*M2/4
=
16D#
8.BB
4BB
=
16D#
8.BB
4BB
=
8r
8BB
4BB
=
4B
16G#
16F#
8G#
=
8G#
8F#
8D#
16F#
16r
=
16G#
16F#
16D#
16BB
8BB
8D#
=
4BB
8BB
8D#
=
4BB
8D#
8r
=
4BB
8BB
8D#
=
4BB
8.F#
16D#
=
8F#
8D#
4r
=
8D#
8BB
8D#
8F#
=
8BB
[8BB
8BB]
8r
=
16D#
8.BB
4BB
=
16D#
8.BB
4BB
=
8r
8BB
4BB
=
!! "A"
4B
4B
=
4G#
16B
16r
8r
=
8B
8A#
16B
8.G#
=
8F#
16G#
16r
8r
=
8B
8A#
16B
8.G#
=
4F#
8D#
8BB
=
8D#
16F#
16D#
4BB
=
8D#
16F#
16D#
4BB
*M3/4
=
8D#
16F#
16D#
4BB
16D#
16BB
8r
*M2/4
=
!! "B"
4B
16G#
16F#
8G#
=
8G#
8F#
16D#
8F#
16r
*M3/4
=
16G#
16F#
16D#
16D#
8BB
8BB
8D#
16D#
16BB
*M2/4
=
8.F#
16D#
8.F#
16D#
*M3/4
=
16F#
16D#
16D#
16C#
8BB
[8BB
8BB]
8r
*M2/4
=
16D#
16BB
8BB
4BB
=
16D#
16BB
8BB
4BB
=
8r
8BB
4BB
=
8D#
8BB
8BB
8r
*M3/4
=
!! "C"
8F#
8F#
16D#
16D#
16BB
16BB
8D#
8F#
*M2/4
=
16D#
8.BB
8BB
8r
=
8BB
8AA#
8GG#
8GG#
=
8BB
8BB
8BB
8BB
*M3/4
=
8BB
8F#
16F#
8.D#
8BB
8r
=
16D#
16BB
8BB
16D#
16BB
16.BB
32BB
8D#
8F#
=
8BB
8BB
8BB
8BB
8BB
8BB
=
!! NEW WORK
!! No. 43
**kern
*clefF4
*k[f#c#]
*M3/4
*MM84
=
2r
8.r
16B
=
4d
4d
8.d
16B
*M7/8
=
8d
8d
4d
4r
8B
*M3/4
=
!! "A"
4d
8.d
16f#
16f#
16e
16d
16d
*M3/8
=
8B
8r
8B
*M2/4
=
4d
8.d
16f#
=
16f#
16e
16d
16d
16B
16A
8B
=
4B
16A
16G
8A
=
4A
8G
8r
*M3/4
=
8D
8D
8D
[8D
8D]
8F#
*M2/4
=
4A
4F#
*M3/4
=
16F#
8.D
8D
[8D
8D]
8F#
*M3/8
=
8A
16A
16D
8D
*M2/4
=
4F#
8F#
8D
=
8D
8r
4r
=
16F#
8.D
4D
=
16F#
8.D
4D
*M5/8
=
8r
8D
4D
8D
=
8F#
8D
8F#
8A
=
8F#
8D
8D
8D
=
16F#
8.D
4D
=
8r
8D
8D
8r
*M3/8
=
!! "B"
4d
8d
=
16d
[16A
8A]
8B
*M2/4
=
32B
[16.A
16A]
16F#
32A
16.F#
8F#
*M3/4
=
8D
8D
8D
[8D
8D]
8F#
*M2/4
=
8.A
16F#
16A
16F#
8F#
*M3/4
=
32F#
16.D
8D
8D
[8D
8D]
8F#
*M2/4
=
8.A
16D
8.D
16F#
*M3/4
=
8F#
8F#
8D
8AA
8D
8r
*M2/4
=
8D
8D
8F#
8A
=
8F#
8D
8D
8D
=
16F#
8.D
4D
=
8r
8D
8D
8r
*M3/8
=
4r
8D
=
8D
8r
8D
*M3/4
=
!! "A"
4d
8.d
16f#
16f#
16e
16d
16d
*M3/8
=
8B
8r
8B
*M2/4
=
4d
8.d
16f#
=
16f#
16e
16d
16d
16B
16A
8B
=
4B
16A
16G
8A
=
4A
8G
8r
*M3/4
=
4D
8D
[8D
8D]
8F#
*M2/4
=
4A
4F#
*M3/4
=
16F#
8.D
8D
[8D
8D]
8F#
*M3/8
=
8A
8A
8D
*M7/8
=
4F#
16F#
8.D
4D
8r
*M2/4
=
!! "C"
8F#
8D
8F#
8A
=
8F#
16D
16F#
16A
16F#
8A
=
16F#
8.D
8D
8r
=
8D
8F#
8D
16AA
16r
=
8D
8D
8D
8D
*M3/4
=
8D
8A
16A
8.F#
8D
8r
=
16F#
16D
8D
16F#
16D
16.D
32D
8F#
8A
=
8D
8D
8D
8D
8D
8D
=
!! NEW WORK
!! No. 44
**kern
*clefF4
*k[b-e-]
*M3/4
*MM84
=
4B-
4B-
8.B-
16G
=
4B-
4B-
8B-
8r
*M2/4
=
!! "A"
4B-
16B-
8.G
=
4.B-
16B-
16G
=
4F
16F
8.D
=
4G
8F
16F
16D
*M3/4
=
4BB-
8BB-
8BB-
8r
8D
*M2/4
=
4F
16F
8.D
=
4G
8F
16F
16D
*M3/4
=
4BB-
8BB-
[8BB-
8BB-]
8D
=
4F
16F
16D
8BB-
8BB-
8r
*M2/4
=
8BB-
8D
8F
16F
16D
=
16F
16D
8BB-
8BB-
8BB-
=
16D
8.BB-
4BB-
=
!! "B"
8r
8BB-
4BB-
=
8r
8BB-
8.BB-
16BB-
=
4F
16F
8.D
=
4G
8F
16F
16D
*M3/4
=
4BB-
8BB-
8BB-
8r
8D
*M3/8
=
8.F
16D
16F
16D
=
4BB-
8r
*M2/4
=
8BB-
8D
8F
16F
16D
=
16F
16D
8BB-
8BB-
8BB-
=
16D
8.BB-
4BB-
*M3/4
=
2r
8F
8BB-
*M2/4
=
!! "A"
4B-
16B-
8.G
=
4.B-
16B-
16G
=
4F
16F
8.D
=
4G
8F
16F
16D
*M3/4
=
4BB-
8BB-
8BB-
8r
8D
=
4F
8F
16F
16D
8BB-
8r
=
!! "C"
8BB-
8D
8F
8F
16D
16BB-
8BB-
=
8D
8F
16D
8.BB-
8BB-
8r
*M2/4
=
8BB-
8D
8BB-
8GG
=
8BB-
8BB-
8BB-
8BB-
*M3/4
=
8BB-
8F
16F
8.D
8BB-
8r
=
16D
16BB-
8BB-
16D
16BB-
16.BB-
32BB-
8D
8F
=
8BB-
8BB-
8BB-
8BB-
8BB-
8BB-
=
!! NEW WORK
!! No. 45
**kern
*clefF4
*k[f#c#]
*M3/4
*MM92
=
2r
8.r
16B
=
4d
4d
8.d
16B
=
4d
4d
8d
8r
=
!! "A"
8d
8f#+
8d
16.B
32c#
4d
*M2/4
=
8A
8B
8A
16.A
32F#
=
4A
4A
=
8A
8A
8A
8r
*M3/4
=
8d
8e
8d
16.B
32c#
8d
*M2/4
=
8A
8B
8.A
16F#
*M3/4
=
8.A
16F#
16A
16F#
8D
8D
8r
*M2/4
=
8d
8d
8d
8d
=
8B
16B
16c#
8B
16A
16r
=
16A
16F#
16D
16D
8.F#
16D
*M3/4
=
8F#
16F#
[16D
8D]
8D
8D
8r
*M2/4
=
16F#
8.D
4D
=
16F#
8.D
4D
=
8r
8D
8D
8r
=
8D
8D
4D
=
8D
8D
8D
8r
=
!! "B"
8d
8d
8d
8d
=
8B
16B
16c#
8B
16A
16r
=
16A
16F#
16D
16D
8.F#
16D
*M3/4
=
8F#
16F#
[16D
8D]
8D
8D
8r
*M2/4
=
8F#
8D
8D
8r
=
!! "C"
8A
8A
8F#
16D
16D
*M3/4
=
8F#
8A
16F#
8.D
8D
8r
*M2/4
=
8D
8F#
8D
8BB
=
8D
8D
8D
8D
*M3/4
=
8D
8A
8A
16F#
16F#
8D
8r
=
32F#
16.D
8D
16F#
16D
8.D
16D
16F#
16A
=
8D
8D
8D
8D
8D
8D
=
!! NEW WORK
!! No. 46
**kern
*clefF4
*k[]
*M3/4
*MM84
=
4c
4c
8.c
16A
=
4c
4c
4c
16r
16c
*M2/4
=
!! "A"
4e
8.c
16d
=
4c
8c
8r
*M3/8
=
8.c
8A
32A
16.G
*M2/4
=
4A
4A
=
16A
8.G
8E
16G
16G
=
4A
4A
*M3/4
=
16A
8.G
8E
8C
16E
8.E
*M2/4
=
4C
4C
=
8r
8C
8.C
16c
=
4e
8.c
16d
=
4c
8c
8r
*M3/8
=
8.c
8A
32A
16.G
*M2/4
=
4A
4A
=
16A
8.G
8E
16G
16G
=
4A
8A
8r
*M3/4
=
16A
8G.
8E
16C
16C
16E
8.E
*M2/4
=
4C
4C
=
8r
8C
8C
8r
=
8r
8C
4C
=
8r
8C
8.C
16c
=
4e
8.c
16d
=
4c
8c
8r
*M3/8
=
8.c
16A
32A
16.G
*M2/4
=
4A
4A
=
16A
8.G
8E
16G
16G
=
4A
8A
8r
*M3/4
=
16A
8.G
8E
16C
16C
16E
8.E
=
4C
8E
8C
8C
8r
*M2/4
=
!! "B"
8G
8G
16E
16E
16C
16C
*M3/4
=
8E
8G
16E
8.C
8C
8r
*M2/4
=
!! "C"
8C
8E
8C
8AA
=
8C~
8C
8C~
8C
*M3/4
=
8C~
8G
16E
8.C
8r
=
16E
16C
8C
16E
16C
8C
8E
8G
=
8C
8C
8C
8C
8C
8C
=
8C
8C
2r
=
!! NEW WORK
!! No. 47
**kern
*clefF4
*k[]
*M3/4
*M84
=
4c
4c
8.c
16A
=
4c
4c
8c
8r
*M2/4
=
!! "A"
4c
8c
8c
=
4c
8A
8G
=
8G
8r
8c
16d
16c
=
16d
16c
8c
8.c
16A
=
16c
8.A
8.A
16G
*M3/4
=
8A
16G
16F
8E
8C
8E
8r
=
8E
8C
8C
8E
8C
8G
*M2/4
=
8.c
16A
16G
16E
8G
=
16A
8.G
8.G
16E
=
16G
8.E
8C
8E
=
8A
8G
24G
24E
24E
24G
24E
24E
=
8C
8C
8C
8r
=
16E
8.C
4C
=
16E
8.C
4C
=
8r
8C
4C
=
!! "B"
8.c
16A
16G
16E
8G
=
16A
8.G
8.G
16E
=
16G
8.E
8C
8E
=
8A
8G
24G
24E
24E
24G
24E
24E
=
8C
8C
8C
8r
=
!! should be 16th note
16E
8.C
4C
=
16E
8.C
4C
=
8r
8C
4C
=
!! "A"
4c
8c
8c
=
4c
8A
8G
=
8G
8r
8c
16d
16c
=
16d
16c
8c
8.c
16A
=
16c
8.A
16A
8.G
*M3/4
=
8A
16G
16E
8E
8C
8E
8r
=
8C
8C
8C
8E
8C
8G
*M2/4
=
8.c
16A
16G
16E
8G
=
16A
8.G
8.G
16E
=
16G
8.E
8C
8E
=
8A
8G
24G
24E
24E
24G
24E
24E
=
8C
8C
8C
8r
=
16E
8.C
4C
=
16E
8.C
4C
=
8r
8C
4C
*M3/4
=
8G
8G
16E
16E
16C
16C
8E
8G
*M2/4
=
16E
8.C
8C
8r
=
8C
8E
8C
8AA
=
8C
8C
8C
8C
*M3/4
=
8C
8G
16G
8.E
8C
8r
=
16E
16C
8C
16E
16C
16.C
32C
8E
8G
=
8C
8C
8C
8C
8C
8C
=
!! NEW WORK
!! No. 48
**kern
*clefF4
*k[b-e-a-]
*M3/4
*MM92
=
8E-
8E-
4E-
4E-
*M2/4
=
!! "A"
16e-
16e-
16e-
16B-
4e-
=
16c
8.B-
8.B-
16f
*M3/8
=
16f
16f
8e-
*M2/4
=
4B-
16G
16F
16F
16B-
*M3/8
=
8.c
16c
8B-
*M2/4
=
16G
16G
16F
16E-
8.E-
16F
=
8.G
16G
12G
12G
12G
*M3/4
=
4E-
4E-
8E-
8r
*M2/4
=
!! "B"
16B-
16B-
16B-
16G
4B-
=
16G
8.F
8.F
16B-
*M3/4
=
8.c
16c
8B-
*M2/4
=
12G
12G
12F
8E-
16r
16F
=
8.G
16G
12G
12G
12F
*M3/4
=
4E-
4E-
4E-
*M2/4
=
!! "A"
16e-
16e-
16e-
16B-
4e-
=
16c
8.B-
8.B-
16e-
*M3/8
=
8.f
16f
8e-
*M2/4
=
4B-
16G
16F
16F
16B-
*M3/8
=
8.c
16c
8B-
*M2/4
=
16G
16G
16F
16E-
8E-
16r
16F
=
8.G
16G
12G
12G
12F
*M3/4
=
4E-
4E-
4E-
=
!! NEW WORK
!! No. 49
**kern
*clefF4
*k[b-e-a-d-g-]
*M2/4
*MM92
=
8.D-
16D-
4D-
=
4D-
8.D-
16D-
=
!! "A"
16f
16e-
8d-
8.d-
16B-
=
4d-
8.d-
16d-
=
16B-
8.A-
4A-
*M3/4
=
4A-
8A-
8r
8.A-
16A-
*M2/4
=
16f
16e-
8d-
8.d-
16B-
=
4d-
8.d-
16d-
=
16B-
8.A-
4A-
=
8.A-
16A-
8A-
8r
=
!! "B"
8.B-
16B-
8.B-
16B-
*M3/8
=
8d-
16d-
16B-
8B-
=
8A-
16A-
16F
8F
*M3/4
=
4F
4F
8F
16r
16B-
*M2/4
=
8.B-
16B-
8.B-
16B-
*M3/8
=
8d-
16d-
16B-
8B-
=
8A-
16A-
16F
8F
*M3/4
=
4F
4F
8F
16r
16B-
=
16B-
8.A-
4A-
16B-
16B-
8A-
=
4F
8F
16F
16F
8D-
16r
16G-
*M2/4
=
8.F
16G-
8.F
16E-
=
4F
12F
12E-
12F
=
4D-
4D-
=
8D-
8r
4D-
=
8D-
16r
!! "C"
16F
8F
16F
16D-
=
4F
4F
=
8F
16r
16F
8F
16F
16D-
*M3/4
=
4F
4F
8F
8r
=
!! "B"
8.B-
16B-
8.B-
16B-
*M3/8
=
8d-
16d-
16B-
8B-
=
8A-
16A-
16F
8F
*M3/4
=
4F
4F
8F
16r
16B-
*M2/4
=
8.B-
16B-
8.B-
16B-
*M3/8
=
8d-
4d-
4B-
8B-
=
8A-
16A-
16F
8F
*M3/4
=
4F
4F
8F
16r
16B-
=
16B-
8.A-
4A-
16B-
16B-
8A-
=
4F
8F
16F
16F
8D-
16r
16G-
*M2/4
=
8.F
16G-
16F
8.E-
*M3/8
=
4F
16F
16E-
4F
*M2/4
=
8.D-
16D-
4D-
=
4D-
8D-
8r
=
!! NEW WORK
!! No. 50
**kern
*clefF4
*k[f#c#g#d#]
*M3/4
*MM104
=
8.E
16E
4E
8E
16r
!! "A"
16e
*M2/4
=
4e
8B
16r
16e
=
4e
8B
16r
16G#
=
4B
8A
16r
16F#
=
4B
8A
16r
16F#
=
8.E
16E
8.F#
16F#
*M3/4
=
8.G#
16F#
4E
4E
*M2/4
=
4E
8E
16r
16e
*M2/4
=
4E
8E
16r
16B
=
!! "B"
16B
8.B
8F#
16r
16B
*M3/4
=
4B
4B
4B
=
16B
8.A
8.F#
16F#
8E
8r
*M2/4
=
8.F#
16F#
8.G#
16F#
=
4E
4E
=
4E
8E
16r
16B
=
4E
8E
16r
16e
=
4e
8B
16r
16e
=
4e
8B
16r
16G#
=
4B
8A
16r
16F#
=
4B
8A
16r
16F#
=
8.E
16E
8.F#
16G#
*M3/4
=
8.G#
16F#
4E
4E
=
4E
4E
4r
=
!! NEW WORK
!! No. 51
**kern
*clefF4
*k[b-]
*M3/4
*MM96
=
!! "A"
8c
8A
4c
4c
=
8c
8A
4c
8c
[8d
=
8d]
8d
8c
8A
4G
=
16G
8.G
8.G
16G
8G
8r
=
16G
8.G
16G
8.G
4G
=
8.c
16A
8.c
16A
16F
8.D
=
8.A
16F
16G
8.F
16D
8.C
=
4F
8C
8C
8C
8F
*M2/4
=
4C
8C
8r
=
16C
8.C
8C
8C
=
8C
8C
8C
8r
*M2/4
=
4F
8C
8C
=
8r
8C
8C
8F
=
4C
8C
8r
=
16C
8.C
8C
8C
=
8C
8C
8C
8r
*M3/4
=
!! "B"
8G
[8G
8G]
8G
8G
8F
*M2/4
=
8C
8C
8C
8r
*M3/4
=
8G
[8G
8G]
8G
8G
8F
*M2/4
=
8C
8C
8C
8r
=
16F
8.D
4C
*M3/4
=
4F
8F
8D
8C
8r
*M2/4
=
16F
8.D
4C
*M3/4
=
4F
8F
8D
4C
=
4F
8F
8D
8C
8r
*M2/4
=
8F
8D
8C
8F
=
8C
8C
8C
8r
=
!! NEW WORK
!! No. 52
**kern
*clefF4
*k[f#]
*M3/4
*MM104
=
2r
4E
=
4B
12B
12A
12A
12G
12G
12G
=
8.G
16G
4G
4G
=
4A
12A
12G
12G
12G
12E
12E
*M2/4
=
8.E
16E
8E
8r
=
16E
8.D
8.G
16E
=
8.E
16E
4E
=
16E
8.D
16G
8.E
*M3/8
=
16E
16r
8G
16E
16E
*M2/4
=
8.E
16E
8.E
16E
=
8.E
16E
4E
*M3/4
=
2r
4E
=
!! NEW WORK
!! No. 53
**kern
*clefF4
*k[f#]
*M3/4
*MM112
=
2r
8r
8E
=
4d
4B
8B
8d
*M2/4
=
4B
8B
8A
*M5/8
=
8G
8G
4r
8G
*M3/4
=
4d
4B
8B
8d
*M2/4
=
4B
8B
8A
*M5/8
=
8G
8G
4r
8G
*M3/4
=
4B
4B
8G
8B
*M2/4
=
4G
8D
8D
*M3/8
=
8BB
4BB
*M2/4
=
8D
8D
8BB
8D
=
2D
*M3/4
=
4D
8D
8D
16D
16r
!! "B"
8G
*M2/4
=
8G
8E
4E
*M5/8
=
8G
8G
8G
8E
8E
=
8D
8E
8D
8BB
8BB
*M3/4
=
2.BB
*M2/4
=
4BB
8r
8G
=
8E
8E
4E
*M5/8
=
8G
8G
8G
8E
8E
=
8D
8E
8D
8BB
8BB
*M3/4
=
2.BB
*M2/4
=
4BB
8r
8E
=
4D
4D
=
8BB
8D
8D
8E
*M3/8
=
8E
8D
8E
*M3/4
=
2.D
*M2/4
=
4D
8r
8B
*M2/4
=
4D
8r
8G
=
8E
8E
4E
*M5/8
=
8G
8G
8G
8E
8E
=
8D
8E
8D
8BB
8BB
*M2/4
=
2BB
=
4BB
4r
=
4BB
8BB
8BB
=
2BB
=
!! NEW WORK
!! No. 54
**kern
*clefF4
*k[f#c#]
*M3/4
*MM112
=
2D
8D
8r
*M2/4
=
!! "A"
8f#
16f#
16e
8f#
8e
=
4d
4d
=
8A
8e
4d
=
4d
8A
8A
*M3/4
=
2A
8A
8r
*M2/4
=
8f#
16f#
16e
8f#
8e
=
4d
4d
=
8A
8e
4d
=
4d
8A
8A
*M3/4
=
2A
8A
8r
*M2/4
=
!! "B"
8d
8d
8d
16f#
16e
=
8d
8d
8d
8r
*M3/4
=
8d
16d
16A
8d
8d
8r
=
8d
16A
16G
8F#
8A
8A
8r
=
8A
16G
16F#
8E
8G
8G
8r
=
8G
16G
16E
8D
8D
8D
8r
*M2/4
=
8D
8D
8D
16F#
16E
=
8D
8D
8D
8r
*M3/4
=
8D
8D
8AA
8D
8D
16D
16AA
=
2AA
8AA
8r
=
!! NEW WORK
!! No. 55
**kern
*clefF4
*k[f#]
*M3/4
*MM108
=
2E
8E
8r
*M2/4
=
!! "A"
4E
8.E
16e
=
2e
=
8e
8d
16B
16G
8B
=
2B
*M3/4
=
8B
8A
16G
16E
8G
8G
8E
*M2/4
=
4E
8BB
8E
*M3/4
=
2E
8E
8r
*M2/4
=
!! "B"
4G
8G
8B
=
2B
*M3/4
=
8B
8A
16G
16E
8G
8G
8E
=
4E
8BB
8BB
8E
8r
*M2/4
=
8E
8E
8G
8E
=
4E
8BB
8BB
*M3/4
=
2E
8E
8r
=
!! NEW WORK
!! No. 56
**kern
*clefF4
*k[f#c#g#d#]
*M3/4
*MM104
=
2E
8E
8r
*M2/4
=
!! "A"
12e
12e
12e
8B
8B
*M3/4
=
2e
4r
=
12e
12e
12e
8B
8c#
8F#
8G#
*M3/8
=
4E
16F#
16F#
*M3/4
=
(4..G#
16F#)
16F#
16F#
16E
16r
=
2E
8E
8r
*M2/4
=
12e
12e
12e
8B
8B
*M3/4
=
2e
4r
=
12e
12e
12e
8B
8c#
8F#
8G#
*M3/8
=
4E
16F#
16F#
*M3/4
=
(4..G#
16F#)
16F#
16F#
16E
16r
=
2E
8E
8r
=
!! "B"
8G#
8G#
8F#
[8E
8E]
16F#
!! added augmentation dot has been removed
16F#
=
(4..G#
16F#)
16F#
16F#
16E
16r
=
2E
8E
8r
=
8G#
8G#
8F#
[8E
8E]
16F#
16F#
=
(4..G#
16F#)
16F#
16F#
16E
16r
=
2E
8E
8r
*M2/4
=
12E
12E
12E
8BB
8F#
=
4E
8BB
8BB
=
4BB
8BB
8r
*M3/4
=
2BB
8BB
8r
*M3/4
=
2BB
8BB
8r
=
!! NEW WORK
!! No. 57
**kern
*clefF4
*k[f#]
*M2/4
*MM108
=
4.d
8e
=
8e
[8d
8d]
8B
=
4B
4A
=
8G
[8E
4E_
=
2E]
=
4.A
8B
=
8B
[8A
8A]
8G
=
4E
4E
=
4D
4r
=
4.D
8E
*M3/4
=
8E
[8D
8D]
8D
8D
*M2/4
=
8E
8D
4D
*M3/4
=
2D
4r
*M2/4
=
4.A
8B
=
8B
[8A
8A]
8G#
=
4E
4E
=
4D
4r
=
4.D
8E
*M3/4
=
8E
[8D
8D]
8D
4D
=
*MM84
8E
8D
4D
=
2D
=
!! NEW WORK
!! No. 58
**kern
*clefF4
*k[f#]
*M2/4
*MM76
=
8.r
16D
8.G
16F#
=
4G
4G
=
8.G
16G
12B
12A
12B
=
4G
8G
8r
*M3/4
=
8B
8B
8G
8G
8D
8r
=
8B
8B
16G
8.G
8D
8r
=
8B
8B
4G
8G
8D
8r
*M2/4
=
8B
8B
16G
8.G
=
8D
8r
8G
16G
16F#
=
4G
4G
*M3/4
=
4G
4G
12D
12D
12F#
=
*MM63
4G
4G
=
4G
4G
=
4G
4r
=
!! NEW WORK
!! No. 59
**kern
*clefF4
*k[f#c#g#d#a#]
*M2/4
*MM126
=
4r
!! "A"
4F#
=
2d#
*M3/4
=
4d#
4c#
4B
*M2/4
=
2d#
*M3/4
=
4d#
4c#
4B
=
2B
4F#
*M2/4
=
4F#
4r
=
8F#
[8F#
4F#]
=
4F#
4F#
=
[2F#
=
2F#]
*M3/4
=
4F#
4r
4F#
*M2/4
=
4F#
4r
=
!! "B"
8B
8F#
4F#
*M3/4
=
4F#
4r
8B
8F#
=
2B
4F#
=
8F#
8D#
4C#
4E
=
2F#
4C#
=
4BB
4r
4D#
=
2D#
4C#
=
2BB
8D#
8C#
=
4BB
4FF#
4FF#
*M5/4
=
[2FF#
2FF#]
4r
=
!! NEW WORK
!! No. 60
**kern
*clefF4
*k[b-]
*M2/4
*MM88
=
8.r
16F
4F
=
8d
[8d
8d]
16d
16c
=
4d
16d
16c
8B-
*M3/4
=
4d
16e
16d
[8d
8d]
16d
16c
=
4c
8B-
16r
16B-
4B-
*M2/4
=
8c
[8c
8c]
16c
16B-
=
4c
4B-
*M3/4
=
4c
16d
16c
[8c
8c]
16c
16B-
=
8.B-
16F
8F
8r
16B-
8.F
*M2/4
=
8B-
[8B-
8B-]
16B-
16F
=
4B-
8F
16r
16B-
=
4B-
8.B-
16F
=
16B-
16F
[8F
8F]
8F
=
4.F
8r
=
8G
8F
8F
8F
=
16G
16F
8F
8.F
16F
*M3/4
=
8.F
16F
8F
8r
4r
*M2/4
=
4F
4F
=
8F
16r
16F
4F
*M3/4
=
4F
4F
8.F
16B-
*M2/4
=
4B-
8.B-
16F
=
4B-
8c
[8B-
=
8B-]
8F
8F
16r
16B-
=
4B-
8.B-
16F
=
16B-
16F
[8F
8F]
8F
=
4F
8F
8r
=
8G
8F
8F
8F
=
16G
16F
8F
4F
=
8.F
16F
4F
=
!! NEW WORK
!! No. 61
**kern
*clefF4
*k[f#c#g#]
*M2/4
*MM96
=
4r
8.r
16d#
=
4d#
8c#
8B
*M3/4
=
4B
8.B
16B
8d#
8c#
=
[2.d#
*M2/4
=
4d#]
8d#
16r
16e
=
4d#
8d#
8c#
=
4B
8.B
16B
*M3/4
=
8c#;
8B;
16A
[8.A
4A]
=
[2.A
=
4A]
4A
8.r
16B
*M2/4
=
4A
8A
8F#
*M3/4
=
8F#
[8E
8E]
8E
8E
8G#
8F#
=
[2.A
*M2/4
=
4A]
8A
16r
16B
=
4A
8A
8F#
=
8F#
[8E
8E]
=
4A
8A
8F#
=
8F#
8E
8D
8F#
=
4E
4E
*M3/4
=
4E
4E
4r
*M2/4
=
16F#
8.E
16F#
8.E
=
16E
[8.E
4E]
=
4E
4E
=
[2E
=
2E]
=
4E
8E
8E
=
2r
=
4E
4E
=
[2E
=
2E]
=
4E
4r
=
4E
8.r
16d
=
*MM116
8.B
16B
4B
=
8e
16e
16c#
4B
=
8d
8B
16A
8.A
*M3/4
=
2A
8A
16r
16B
*M2/4
=
*MM160
4A
8A
8F#
*M3/4
=
8F#
[8E
8E]
8E
8G#
8F#
*M2/4
=
[2A
*M3/4
=
2A]
8A
16r
16B
*M2/4
=
4A
8A
8F#
*M3/4
=
8F#
[8E
2E]
*M2/4
=
4A
8A
8F#
=
8F#
8E
8D
8F#
=
4E
4E
*M3/4
=
4E
4E
4r
*M2/4
=
16F#
8.E
16F#
8.E
=
16E
8.E
4E
=
4E
4E
=
[2E
=
2E]
=
4E
4E
=
4E
4r
=
!! NEW WORK
!! No. 62
**kern
*clefF4
*k[f#]
*M2/4
*MM116
=
4G
4G
=
4G
4G
*M3/4
=
4G
4G
8G
8r
*M2/4
=
!! "A"
4d
4e
=
4..d
16G
*M3/4
=
4d
4e
4d
*M2/4
=
4c
8.c
16G
=
4c
8.c
16G
=
4G
8.G
16D
=
8G
8E
8.D
16D
=
4D
8D
8r
*M3/4
=
8D
8D
4D
4D
=
4D
8D
8r
8r
=
4D
4D
4D
=
4D
4D
8D
16r
!! "B"
16B
*M2/4
=
4d
4d
=
8B
8G
8G
8G
*M3/4
=
4G
8G
8.r
16d
=
4e
4e
8d
8A
*M2/4
=
4d
4d
=
8B
8G
8G
8G
*M3/4
=
4G
4G
8.r
16A
=
4B
4B
8A
8G
*M2/4
=
4A
8A
8r
*M3/4
=
8G
8D
8G
8D
8D
8D
=
4D
4D
8.r
16d
=
4D
8D
8r
4D
=
2D
4D
=
2D
4r
*M2/4
=
*MM176
4r
!! "C"
4G
=
2A
=
2e
*M3/4
=
4d
4e
4d
*M2/4
=
2d
=
4d
4r
=
4A
8B
8A
!! missing barline added
=
4G
4G
=
2D
=
2G
*M3/4
=
4G
4r
4A
*M2/4
=
2B
=
2e
*M3/4
=
4d
4e
4d
*M2/4
=
2d
=
4d
4r
=
4A
8B
8A
=
4G
4G
=
2G
=
2G
*M3/4
=
*MM192
4G
4r
!! "D"
4f#
*M2/4
=
2g
=
2a
*M3/4
=
4e
4a
4e
*M2/4
=
2e
=
2e
*M3/4
=
4e
4r
4g
*M2/4
=
2d
=
2e
*M3/4
=
4d
4e
4B
*M2/4
=
2G
=
2G
=
4G
4r
=
4A
4A
*M3/4
=
4A
4G
4G
*M2/4
=
4A
4A
*M3/4
=
4E
4E
4r
*M2/4
=
4G
4E
=
4G
4G
!! missing barline added
=
2G
=
2G
*M3/4
=
2G
4f#
=
4G
4r
=
2G
=
[2G
=
2G]
=
4..G
16G
=
8G
8r
4r
=
!! NEW WORK
!! No. 63
**kern
*clefF4
*k[b-e-a-d-]
*M2/4
*MM126
=
8A-
8F
4F
=
4F
8F
8F
=
4F
4r
=
8A-
8F
4F
=
4F
8F
8F
=
4F
4r
=
4F
8F
8e-
=
8f
8e-
8e-
8B-
=
4d-
4r
=
8d-
8B-
8B-
8d-
=
8e-
8d-
8d-
8B-
=
8d-
8B-
8A-
8F
=
4A-
4r
=
8A-
8F
8F
8F
=
4F
4A-
=
4c
4B-
=
8c
8B-
4B-
=
4A-
4F
=
4B-
8B-
8r
=
8A-
8F
8F
8F
=
4F
4A-
=
8c
8B-
8c
8B-
=
4A-
8F
8r
=
8B-
8A-
8B-
8A-
=
4F
4A-
=
4F
8F
8r
=
8A-
8F
8F
8F
=
4F
4A-
=
4c
4B-
=
8c
8B-
8B-
8r
=
4A-
4F
=
8B-
8B-
8B-
8r
=
4c
4B-
=
8c
8B-
4B-
=
4A-
4F
=
8B-
8B-
8B-
8r
=
16B-~
16A-
8F
4F
=
4.F
8A-
=
8A-
8F
8F
=
8A-
8F
8r
8A-
=
4B-
4A-
=
4.B-
16A-
16F
=
4.A-
8A-
=
4F
4r
=
8A-
8F
8F
8F
=
8A-
8F
4F
=
4F
4F
=
4F
4r
=
2r
=
!! "B"
8f
8f
4f
=
4g
4g
=
8g
8f
4f
=
4e-
4B-
=
8B-
8B-
8B-
8B-
=
4B-
8B-
8r
=
4c
4A-
=
8B-
8B-
8B-
8r
=
4B-
4B-
=
4A-
8F
8F
=
8B-
8B-
4B-
=
4B-
8B-
8r
=
4c
4A-
=
8B-
8B-
8B-
8r
=
8B-
8A-
8F
8F
=
4F
4A-
=
4c
4B-
=
8c
8B-
8B-
8A-
=
8B-
8B-
8B-
8r
=
8B-
8B-
4B-
=
4B-
8B-
8e-
=
8e-
8B-
8B-
8A-
=
8B-
8B-
8B-
8r
=
8c
8B-
4A-
=
4.F
8A-
=
8B-
8B-
4B-
=
4.F
8A-
=
8B-
8B-
4A-
=
4B-
!! notated as 16th notes in the original (prob. wrong)
8A-
8F
=
4.A-
8A-
*M3/4
=
2F
4r
*M2/4
=
*MM132
4F
8r
!! "C"
8f
=
4f
8c
8d-
=
4c
8A-
8B-
*M3/8
=
4B-
8A-
*M2/4
=
8F
8F
8F
8r
*M5/8
=
4F
4F
8A-
*M2/4
=
4c
8A-
8c
=
8B-
8B-
4r
*M3/4
=
8.B-
16c
8B-
8A-
8F
8A-
*M5/4
=
2F
2.r
*M2/4
=
4F
4r
=
4F
8r
8f
=
4f
8c
8d-
=
4c
8A-
8B-
*M3/8
=
4B-
8A-
*M2/4
=
8F
8F
8F
8r
*M5/8
=
4F
4F
8A-
*M2/4
=
4c
8A-
8c
=
8B-
8B-
4r
*M3/4
=
8.B-
16c
8B-
8A-
8F
8A-
=
4F
4F
4F
=
*MM126
4.A-
8F
4F
*M2/4
=
4F
4r
*M3/4
=
4.A-
8F
4F
*M2/4
=
8A-
8F
4F
=
4F
4F
=
4F
4r
=
2r
=
16B-
8.A-
8A-
8A-
*M7/8
=
4A-
8A-
8A-
8A-
4A-
*M2/4
=
16B-
8.A-
8A-
8A-
*M5/8
=
4A-
8A-
8A-
8A-
=
4A-
4r
=
!! NEW WORK
!! No. 64
**kern
*clefF4
*k[f#c#g#d#a#]
*M2/4
*MM96
=
4.r
16G#
16F#
=
4D#
4F#
*M3/4
=
4F#
[4F#
8F#]
16G#
16F#
*M2/4
=
4D#
4F#
=
4F#
4r
=
8F#
8F#
8F#
8G#
=
4B
8B
8G#
=
2B
=
8F#
8r
4r
=
4c#
4B
=
16G#
8.G#
16F#
8.E
=
4G#
8E
8E
*M5/8
=
4F#
8F#
8r
8F#
=
4c#
8B
8G#
8B
*M2/4
=
16B
8.G#
16G#
8.E
=
4F#
4r;
*M3/4
=
2G#
4B
=
2G#
4B
*M2/4
=
2G#
=
8F#
8E
4G#
*M3/4
=
2F#
8r
8F#
*M2/4
=
4E
4F#
*M3/4
=
2F#
8r
8F#
*M2/4
=
4E
4F#
*M3/4
=
2F#
8r
8F#
*M2/4
=
4F#
8F#
8G#
*M2/4
=
4F#
4r
=
!! "B"
4c#
16c#
16B
8B
*M3/4
=
4c#
16c#
16B
8B
8.r
16e
=
8.e
16e
8e
8e
16e
16B
8G#
=
2B
8F#
8r
*M2/4
=
*MM56
8B
8B
8G#
16F#
16r
=
8B
8B
8G#
16E
16r
*M5/8
=
8.B
16c#
8B
16G#
16E
8G#
*M3/4
=
8F#
16F#
16F#
8G#
16F#
16r
8F#
*M3/4
=
8F#
8r
8F#
8G#
16F#
16r
8F#
*M2/4
=
*MM96
!! "C"
4c#
16c#
16B
8B
*M3/4
=
4c#
16c#
16B
8B
8.r
16B
*M2/4
=
4e
16B
16B
8G#
*M3/4
=
2B
8F#
8r
*M2/4
=
4B
16c#
16B
8G#
*M3/4
=
4B
16c#
16B
8G#
8.r
16G#
*M2/4
=
!! probably missing augmentation dot
4.c#
8B
=
4G#
4G#
=
4F#
4r
=
4F#
4G#
=
4F#
8.r
16F#
=
4e
16e
8.B
=
16c#
8.B
8G#
16r
16G#
=
4c#
4c#
=
16B
8.E
4G#
=
4F#
4r
=
4F#
4F#
=
8G#
8F#
8F#
8C#
*M3/4
=
4F#
4F#
4C#
*M2/4
=
8F#
8C#
8E
8C#
=
4C#
4C#
=
2BB
=
=
!! NEW WORK
!! No. 65
**kern
*clefF4
*k[f#]
*M2/4
*MM84
=
16B
8.G
4G
=
16B
16G
8G
8G
8G
=
8r
8G
4G
*M3/4
=
!! "A"
4g
8g
8r
8.g
16e
*M2/4
=
4g
8g
8r
=
4g
8g
8e
=
8g
8e
8d
8r
=
8d
16d
16d
16d
16G
16B
16G
=
16B
16r
8G
8G
8r
=
16B
16G
8G
8G
8G
*M3/4
=
16B
8.G
4G
4r
*M3/8
=
8G
8G
8G
*M2/4
=
8B
8G
8G
8B
=
8.d
16d
16d
16B
16d
16B
=
8d
8B
8B
16.G
32B
=
8G
8G
8G
16r
16B
=
16d
8.G
16B
8G
16B
=
8G
8G
8G
8r
*M3/4
=
16B
8.G
4B
8G
8r
*M2/4
=
!! "B"
4e
8g
8e
=
16e
8.d
16d
16A
16r
16d
=
8d
8B
8G
8r
*M3/4
=
16B
8.G
16d
8.B
8d
16d
16B
*M2/4
=
4G
8.G
16D
=
8G
8G
8G
8r
=
8B
16G
16G
8G
8G
=
8G
8G
8G
8r
=
8B
8G
8G
8G
=
8G
8G
8G
8r
=
8B
16G
16G
8B
*M3/4
=
8.d
16d
12d
12B
12d
16d
8.B
=
12B
12G
12B
8G
16G
16G
8G
16r
16B
*M2/4
=
16d
8.G
16B
8G
16B
=
8G
8G
8G
8r
*M3/4
=
16B
8.G
4B
8G
8r
*M2/4
=
8B
8G
8G
8G
=
8G
8G
8G
=
4G
4G
=
!! NEW WORK
!! No. 66
**kern
*clefF4
*k[b-e-a-]
*M2/4
*MM72
=
8.c
16A-
8.c
16A-
=
8.G
16G
4A-
=
16c
16A-
16A-
16G
8.A-
16G
=
8.F
16F
8G
8r
=
16c
16G
16G
16G
8.A-
16G
=
8.F
16F
4G
*M3/4
=
16A-
16G
16G
16r
8G
16c
16A-
8G
8r
=
16A-
16G
16G
16r
8G
16c
16A-
=
2G
8G
8r
*M2/4
=
8.c
16A-
8.c
16A-
=
8G
16G
16G
8A-
8r
=
16c
16A-
16A-
16G
8.A-
16G
=
8F
16F
16F
8G
8r
=
16c
16G
16A-
16G
8A-
16A-
16G
=
8.F
16F
8G
8r
=
16c
16G
16A-
16G
8A-
16A-
16G
=
8F
8F
8G
8r
=
8.c
16A-
8c
16c
16A-
8.G
16G
4A-
=
16c
16A-
16A-
16G
8A-
8G
=
8.F
16F
8G
8r
=
16c
16G
16A-
16G
8A-
16A-
16G
=
8.F
16F
8G
8r
=
16c
16G
16A-
16G
8A-
16A-
16G
=
8.F
16F
8G
8r
*M3/4
=
8.G
16G
16r
8G
16c
16A-
8G
8r
*M2/4
=
8.G
16G
16r
8G
16c
16A-
*M3/4
=
2G
8G
8r
=
!! NEW WORK
!! No. 67
**kern
*clefF4
*k[f#c#g#d#]
*M2/4
*MM84
=
16B~
16B
8B
8F#
8r
=
16B~
16B
8B
4F#
*M3/4
=
8B~
8B~
8F#
8F#
8F#
8r
*M2/4
=
16B~
16B
8B
8F#
8r
=
16B~
16B
8B
4F#
*M3/4
=
8B~
8B~
8F#
8F#
8F#
8r
*M2/4
=
16B
16B
8B
8F#
8B
*M3/4
=
8c#
8G#
8G#
8F#
8c#
8A
*M2/4
=
4B
[4B
=
4B]
8.r
!! "A"
16d
2f#
*M5/8
=
8g#
8e
8e
16e
16c#
8c#
*M2/4
=
4B
8r
8f#
=
(8f#
8d#)
16r
(8d#
8c#)
*M3/8
=
4B
8r
*M2/4
=
16B
16F#
8F#
8F#
8F#
*M3/4
=
8F#
8F#
16F#
16D#
16D#
16r
16D#
16D#
16C#
16r
*M2/4
=
4BB
4r
=
16D#~
16D#
8BB
8D#~
8BB
=
8D#~
8D#~
8BB~
16D#
16r
=
4BB~
8BB
8r
*M3/4
=
16D#
8BB
16BB
8BB
8BB
8BB
8r
*M2/4
=
!! "B"
4f#
4f#
=
16f#
16c#
8c#
4f#
=
8.g#
16e
16e
16c#
16c#
16r
=
8e
8B
8c#
8r
=
8e
16c#
16r
8c#
8e
=
8c#
8A
8B
8r
*M3/4
!! page 96
=
8c#
8c#
8c#
16e
16r
8c#
8A
=
2B
4r
*M2/4
=
2f#
=
16f#
16f#
8c#
4f#
=
8.g#
16e
16e
16e
16c#
16r
=
16c#
16c#
8B
8c#
8r
*M5/8
=
4.c#
16c#
16A
8B
*M3/4
=
4c#
8c#
8e
8c#
8A
=
2B
4r
*M2/4
=
2f#
=
8f#
16f#
16c#
4d#
*M3/4
=
8.g#
16e
16e
16c#
8c#
16c#
16c#
16B
16r
=
8c#
8e
8c#
8A
4c#
=
4B
8B
8G#
8E
8r
*M2/4
=
16G#
16E
16.E
32E
8E
8E
=
16G#
16E
16.E
32C#
8BB
16r
16E
*M3/4
=
8E
8r
8E
8C#
8C#
8C#
=
8BB
8r
8BB
8r
8BB
8r
=
8E
8r
8E
8r
8E
8r
=
!! NEW WORK
!! No. 68
**kern
*clefF4
*k[f#]
*M3/4
*MM69
=
2r
8r
16E
16E
=
8G
16G
16G
12G
12D
12D
4D
*M2/4
=
*MM63
4C
8GG
8C
=
12C
12GG
12GG
8GG
16r
16G
=
*MM60
8.G
16G
4G
=
4D
8C
8D
=
16D
(8C
16AA)
8AA
8C
=
16C
8AA
16GG
8GG
8AA
*M3/4
=
8AA
16GG
16GG
8GG
16AA
16AA
8GG
8r
*M5/8
=
16D
16D
16C
16AA
16AA
16r
16D
16D
8D
*M3/8
=
16D
16C
16C
16AA
8GG
*M2/4
=
8AA
16GG
16GG
8GG
8r
*M3/4
=
16AA
8GG
16GG
8GG
8GG
16AA
16GG
8GG
*M2/4
=
8.AA
16GG
8GG
8r
*M3/4
=
16GG
8GG
16GG
8GG
8GG
4r
*k[b-e-]
*M2/4
=
*MM84
8B-
16B-
16B-
4B-
=
16c
8.B-
16G
8.F
*M5/8
=
8G
8G
8G
(16G
16B-)
(16B-
16G)
*M3/8
=
8F
4F
*M2/4
=
8.G
16G
16B-
8.F
=
8G
8G
8G
16B-
16G
=
4B-
8F
8F
=
4F
4r
=
*MM69
8B-
8c
4B-
=
4B-
*MM84
12c
12B-
12G
*M5/8
=
8G
16B-
16G
8F
8G
16B-
16G
*M2/4
=
4F
4r
*M3/4
=
*MM69
8.G
16B-
8F
16F
16F
4F
=
2G
4r
*M3/8
=
8G
8B-
8G
*M2/4
=
8G
16F
16E-
8D
8F
*M3/4
=
4D
8D
16D
16C
8BB-
24D
24C
24BB-
*M2/4
=
8BB-
8BB-
8BB-
8r
*M3/4
=
*MM84
(16BB-
16GG)
8GG
*MM86
(16BB-
16GG)
8GG
*MM88
(16BB-
16GG)
8GG
*M2/4
=
*MM84
8D
8D
(4BB-
=
8GG)
8GG
4r
=
8GG
8GG
4r
=
!! NEW WORK
!! No. 69
**kern
*clefF4
*k[f#]
*M2/4
*MM76
=
16G
16E
8G
8G
16E
16D
=
(16D+
16BB)
16BB
16BB
8BB
8r
*M3/4
=
16G
16E
8G
8G
16E
16D
16D+
16D
8BB
*M2/4
=
8E
8E
(8E
8BB)
=
(8BB
16GG)
16GG
8GG
8r
=
(16E
8BB)
16GG
16GG
16GG
8GG
=
8BB
16GG
16GG
8GG
16.GG
32GG
*M3/4
=
8D
16D
16D
(16E
16D)
(16D
16BB)
16D
8D
16BB
*M6/4
=
(8D
8BB)
8D
8D
8BB
8GG
=
8GG
8GG
8GG
8BB
8GG
8GG
*M7/8
=
8GG
8GG
8BB
8GG
8GG
8r
8GG
*M6/8
=
*MM160
8BB
8BB
8D
8BB
8GG
16GG
16GG
*M2/4
=
8.BB
16D
8BB
8BB
=
(4BB
8GG)
16GG
16GG
=
8.BB
16GG
8GG
8r
*M3/4
=
*MM69
8BB
8BB
16BB
8GG
16GG
8GG
8BB
=
16BB
(8BB
16GG)
8GG
(16BB
16GG)
8GG
8r
=
8D
16D
16BB
8D
24BB
(24BB
24GG)
8GG
8GG
*M2/4
=
8BB
8BB
16BB
8GG
16GG
=
!! strange notation, eighth note has extra partial beam
8BB
16GG
16GG
8GG
8r
*M3/4
=
16BB
8GG
16GG
8GG
8GG
(16BB
16GG)
8GG
*M2/4
=
8.BB
16GG
8GG
8r
=
16GG
8.GG
24GG
24GG
24GG
8r
=
*k[f#c#g#d#]
*MM92
8.G#
16G#
(8.B
16G#)
=
12B
12A
12G#
4G#
=
12B
12A
12G#
8.B
16G#
=
12B
12A
12G#
8G#
8r
=
16G#
8.E
16G#
8.E
=
!! "Pitch uncertain for about 7 measures to end of performance"
!! etc.
!! NEW WORK
!! No. 70
**kern
*clefF4
*k[f#]
*M2/4
*MM100
=
4A
4A
=
4A
8.A
16E
*M3/4
=
(8.F#
16E)
4..E
16C
=
(8.E
16C)
4..C
16AA
*M2/4
=
(8.C
16AA)
8AA
8r
=
*MM69
8C
16AA
16AA
8C
16AA
16AA
*M3/4
=
16C
16C
16AA
16AA
8EE
16AA
16AA
8AA
8r
*M3/8
=
16E
8.C
8C
*M3/4
=
*MM80
8.E
16E
8E
16E
16C
4E
*M2/4
=
16E
(8C
16AA)
16AA
16EE
8r
*M3/4
=
16E
(8C
16AA)
16AA
16AA
8AA
8AA
16r
16C
=
4E
16E
(8C
16AA)
16C
16C
8AA
*M2/4
=
*MM92
8C
8C
8.C
16AA
=
8C
16C
16AA
8AA
8AA
*M3/8
=
8.C
16E
16E
16C
*M2/4
=
4C
8.AA
16AA
!! "12 measures approximate repetition of
!! 5 preceding measures with pitch and time variable"
*k[b-e-a-]
*M3/4
=
*MM69
8B-
8B-
16B-
16r
8B-
16G
16G
8G
*M2/4
=
8B-
8B-
16B-
16r
8B-
=
8G
8G
8G
8B-
=
16B-
16c
16B-
16G
8E-
8E-
=
16E-
8C
16BB-
16BB-
(8BB-
16GG)
=
16GG
16GG
8GG
8GG
8r
=
16E-
16.BB-
32BB-
(16BB-
16GG)
8GG
=
8EE-
16GG
16GG
8GG
8r
=
8B-
8B-
8B-
16B-
16G
*M3/4
=
8B-
8B-
8B-
(16B-
16G)
8G
8r
*M2/4
=
16G
16G
8E-
16E-
16E-
16D
16r
=
16G
16G
8E-
16E-
16E-
16D
16r
=
16B-
16B-
16G
16G
16B-
16B-
16G
16G
=
16B-
16B-
8G
8G
8r
=
16B-
16B-
16G
16G
16E-
16E-
16D
16D
*M3/4
=
16BB-
16C
16BB-
16C
16GG
16BB-
8GG
16GG
16GG
8r
*M2/4
=
16E-
16E-
8BB-
16BB-
16BB-
8GG
*M5/8
=
8.GG
16EE-
8GG
8GG
8r
*M2/4
=
8B-
16c
16B-
16An
16B-
8G
*M5/8
=
16B-
16B-
16An
16B-
16G
16G
8G
8r
*M2/4
=
8B-
16G
16G
16E-
16E-
16D
16D
=
16BB-
16E-
16BB-
16E-
16GG
16BB-
8GG
8GG
8r
*M3/4
=
16E-
16E-
8BB-
(16GG
16BB-)
8GG
8.GG
16EE-
=
16BB-
16GG
8GG
16GG
16GG
8GG
4r
=
!! NEW WORK
!! No. 71
**kern
*clefF4
*k[b-e-a-d-]
*M3/4
*MM76
=
2r
8.r
16A-
=
2B-
12.A-
24B-
12A-
=
2F
8.r
16A-
=
2B-
12.A-
24B-
12A-
=
2F
4r
*M2/4
=
*MM92
8.A-
16A-
8B-
16A-
16A-
=
8F
8C
8C
16F
16C
*M3/8
=
8F
8C
8BB-
*M2/4
=
8AA-
8AA-
16C
16AA-
8AA-
*M3/8
=
8C
16BB-
16BB-
16.AA-
32FF
*M3/4
=
8AA-
16FF
16AA-
8FF
8FF
8r
=
16C
16AA-
8AA-
8AA-
8AA-
=
8AA-
16FF
16FF
8FF
8r
=
!! NEW WORK
!! No. 72
**kern
*clefF4
*k[f#]
*M2/4
*MM66
=
16E
16E
8E
8E
8E
=
16E
(8E
16BB)
16AA
16AA
8AA
=
8BB
8AA
8GG
8EE
*M3/4
=
16GG
8GG
16EE
16EE
16EE
16EE
16EE
8EE
8r
*M2/4
=
(16BB
16AA)
(16BB
16AA)
16AA
16AA
8AA
=
(16AA
16GG)
8GG
16EE
16EE
8EE
=
16GG
(8GG
16EE)
8EE
8r
*M3/4
=
16AA
16AA
8AA
16BB
8BB
16AA
16GG
16GG
8EE
*M2/4
=
16GG
8EE
16EE
8EE
8GG
*M3/4
=
(16GG
8EE)
16EE
8EE
16EE
16EE
8EE
8r
*M2/4
=
(16BB
16GG)
8GG
8GG
8r
*M3/4
=
(16GG
16EE)
8EE
16EE
16EE
8EE
8EE
8r
*M5/8
=
16A
16A
4A
16A
16G
16E
16r
*M3/4
=
8A
8B
4A
16A
16G
8E
*M2/4
=
8A
8A
8.E
16E
*M3/4
=
4A
(16A
16E)
8D
8C
8AA
=
16C
8C
16AA
16AA
8.AA
16AA
16GG
16GG
16FF#
=
8AA
8AA
8AA
8AA
8r
=
!! "etc."
!! NEW WORK
!! No. 73
**kern
*clefF4
*k[b-e-]
*M2/4
*MM69
=
4r
8.r
16F
=
8.F
16F
16G
16F
8D
*M3/4
=
8.F
16C
16BB-
16C
16BB-
16BB-
8BB-
16r
16F
*M3/8
=
*MM92
8.F
16F
8F
*M5/8
=
12F
12D
12D
12D
12C
12C
16BB-
16r
*M2/4
=
8.C
16C
12BB-
12GG
12GG
=
8.GG
16GG
16BB-
16GG
8GG
*M3/4
=
8.BB-
16BB-
16BB-
8.GG
8FF
8GG
*M2/4
=
8.FF
16BB-
4FF
*M3/8
=
16FF
16r
8.GG
16GG
*M2/4
=
8.FF
16GG
4FF
=
24FF
12FF
12FF
24r
8.r
16FF
*M3/8
=
8.C
16C
8BB-
*M3/4
=
*MM76
8.C
16C
12C
12BB-
12BB-
16BB-
16GG
16GG
16FF
=
(4BB-
8FF)
8FF
8.r
16BB-
*M2/4
=
8.FF
16FF
8FF
8FF
*M3/4
=
*MM63
16GG
16FF
8FF
16GG
16FF
16FF
16FF
8FF
8r
=
16GG
16FF
16FF
16FF
16GG
16FF
16FF
16FF
8FF
16r
16F
*M2/4
=
*MM80
16G
16G
8G
8G
16A+
16G
*M3/4
!! Pitch gradually lowered a tone
=
8B-
8B-
8B-
8B-
16B-
16G
8F
=
16G
16G
8F
8F
16G
16G
8F
*M2/4
=
16G
16G
8G
8G
16A+
16G
*M3/4
=
8B-
8B-
8B-
8B-
16B-
16G
8F
=
16G
16G
8F
8F
16G
16G
8F
8r
=
16G
16G
8F
8F
16G
16G
8F
8r
*M2/4
=
16G
8G
16A
16A
16G
16F
16D
=
16F
8D
16D
16F
16D
16D
16BB-
*M3/4
=
16D
8BB-
16BB-
16BB-
16GG
16BB-
16GG
8GG
8r
*M2/4
=
8C
8C
16BB-
16GG
16BB-
16GG
=
8GG
8GG
16GG
16FF
16FF
16r
=
16GG
16FF
16FF
16r
4r
!! On indicated pitch
*M3/8
=
8F
16F
16A
8E-
*M5/8
=
16F
16F
8F
16F
16A
16A
16F
8F
*M2/4
=
16A
16F
16E-
16C
16E-
16C
8C
=
16E-
16C
16C
16AA
16C
16AA
8AA
=
16AA
16FF
16AA
16FF
8FF
8r
*M3/8
=
8BB-
8BB-
16AA
16FF
*M3/4
=
16AA
16FF
8FF
8FF
8FF
4r
=
16BB-
16FF
16FF
16r
16AA
16FF
16FF
16r
4r
=
!! NEW WORK
!! No. 74
**kern
*clefF4
*k[b-e-a-d-]
*M3/4
*MM100
=
[2A-
8.A-]
16E-
*M2/4
=
8F
8F
[4E-
=
4E-]
4r
=
8.F
16A-
16F
8.E-
=
4.E-
8C
*M3/4
=
8E-
8E-
[4C
8C]
8E-
*M2/4
=
8C
8C
8C
16C
16r
*M3/4
=
8C
8C
8C
16C
16r
4r
*M3/4
=
8C
8C
8C
16C
16r
8.r
16G
*M2/4
=
*MM84
8.c
16d-
8.c
16d-
=
8c
8B-
4A-
=
16B-
16B-
8c
8B-
24A-
24F
24A-
*M3/4
=
8.F
16E-
8C
24E-
24C
24C
8E-
8r
*M2/4
=
8.F
16E-
8C
24E-
24C
24C
*M5/8
=
16.F
32G
16F
16G
8E-
24F
24C
24C
16.C
32F
*M2/4
=
*MM72
16E-
16C
8C
8C
16C
16r
*M3/4
=
16E-
16C
8C
8.C
16C
16r
8.r
16G
*M3/4
=
16C
16C
8C
8C
16C
16r
8.r
16C
=
*MM84
8.F
16E-
8C
24E-
24C
24C
4E-
*M2/4
=
8.F
16E-
8C
16E-
16C
*M5/8
=
16.F
32G
16F
16G
8E-
24F
24C
24C
16.C
32F
*M2/4
=
*MM72
16E-
16C
8C
8C
16C
16r
*M3/4
=
8E-
16C
16C
8C
8C
4r
*M2/4
=
8E-
8E-
8E-
8E-
*M3/4
=
8E-
8E-
8E-
8E-
4r
*M2/4
=
16E-
16C
8C
8C
8C
*M3/4
=
16E-
16E-
8C
8C
8C
4r
*M2/4
=
*MM60
16E-
16C
16C
16C
8C
16C
16r
=
16E-
16C
16C
16C
8C
16C
16r
=
!! NEW WORK
!! No. 75
**kern
*clefF4
*k[f#c#g#d#]
*M2/4
*MM92
=
8.G#
16A
8G#
8A
=
8.G#
16F#
4E
=
12G#
12F#
12G#
8.F#
16E
=
4C#
8BB
16GG#
16r
=
16BB
16BB
8GG#
4BB
*M3/4
=
8C#
8C#
8BB
8GG#
16BB
16BB
8GG#
*M2/4
=
8C#
8C#
8C#
8BB
=
16C#
16C#
8GG#
8.GG#
16C#
=
16BB
16BB
8GG#
8GG#
8GG#
*M3/4
=
16BB
16BB
8GG#
8GG#
16GG#
16r
8r
=
8G#
8G#
8G#
8G#
8G#
8F#
*M2/4
=
16E
16E
8C#
[4C#
=
8C#]
8BB
8BB
16BB
16E
*M3/4
=
2E
8F#
8F#
*M2/4
=
16E
8.C#
12C#
12BB
12D#
=
8C#
8C#
4C#
*M3/4
=
8C#
8C#
8C#
8C#
4r
=
8G#
8G#
4.G#
8F#
*M2/4
=
16E
8.C#
[4C#
=
8C#]
8BB
8.r
16BB
*M3/4
=
2E
8F#
8F#
*M2/4
=
16E
8.C#
12C#
12BB
12C#
=
8C#
8C#
4C#
*M3/4
=
8C#
8C#
8C#
8C#
4r
*M2/4
=
*MM84
16C#
16C#
8BB
8BB
8C#
=
16BB
16BB
8GG#
8GG#
8GG#
*M3/4
=
16BB
16BB
8GG#
8GG#
8GG#
4r
*M2/4
=
16C#
16C#
8C#
8C#
8C#
=
12C#
12BB
12D#
4C#
=
16C#
16BB
8BB
8BB
8C#
=
16BB
16BB
8GG#
8GG#
8GG#
*M3/4
=
16BB
16BB
8GG#
8GG#
8GG#
4r
*M2/4
=
16BB
16BB
8BB
8BB
8BB
*M3/4
=
8BB
8BB
8BB
8BB
4r
*M2/4
=
16BB
16BB
8GG#
8GG#
8GG#
*M3/4
=
16BB
16BB
8GG#
8GG#
8GG#
4r
*M2/4
=
16BB
16BB
16GG#
16GG#
8GG#
8GG#
=
*MM66
16BB
16BB
16GG#
16GG#
8GG#
8GG#
=
!! NEW WORK
!! No. 76
**kern
*clefF4
*k[b-e-]
*M2/4
*MM104
=
8F
8F
4F
=
12G
12F
12G
4F
*M5/8
=
8F
8F
8F
8r
16F
16D
*M2/4
=
4.F
8F
=
8D
8C
8BB-
8BB-
*M5/8
=
8BB-
8BB-
4r
8F
*M2/4
=
8F
8F
8F
8D
=
8BB-
8D
8BB-
8BB-
*M3/4
=
8BB-
8D
4BB-
8r
8F
*M2/4
=
4BB-
8BB-
8BB-
=
8BB-
8BB-
8BB-
8D
=
4BB-
8BB-
8BB-
=
8BB-
8BB-
8r
8F
*M5/8
=
8BB-
8BB-
8BB-
16D
16D
8C
*M2/4
=
2BB-
=
4BB-
16BB-
16BB-
8r
=
16F
8.F
(8.B-
16F)
=
8F
8F
8C
(16E-
16D)
*M3/4
=
4BB-
8GG
16BB-
16BB-
8BB-
8r
=
16BB-
8.BB-
8.F
16E-
12D
12C
12D
=
12BB-
12BB-
12BB-
8BB-
8BB-
4BB-
*M2/4
=
16D
16BB-
8BB-
16D
16C
8BB-
=
4.BB-
8D
=
8BB-
8BB-
8BB-
8r
=
12F
12E-
12E-
12F
12E-
12F
=
4BB-
4BB-
=
12D
12C
12BB-
8BB-
8r
=
16D
16C
8BB-
16D
16C
8BB-
=
8BB-
8BB-
8BB-
8BB-
=
*MM80
4BB-
8BB-
8r
=
(16BB-
16GG)
8GG
(16GG
16FF)
8FF
=
*MM63
16FF
16DD
8DD
16DD
16DD
8DD
=
4DD
4r
=
!! NEW WORK
!! No. 77
**kern
*clefF4
*k[]
*M2/4
*MM104
8.A
16E
8E.
16D
*M3/4
=
2.D
*M2/4
=
8.A
16E
8E.
16D
=
8.E
16D
8.D
16C
*M3/4
=
2AA
4r
*M2/4
=
8C
8AA
12C
12C
12AA
*M3/4
=
2D
4C
*M2/4
=
12E
12E
12E
4D
=
4D
4C
=
12E
12E
12D
4C
=
4C
8AA
8r
=
12E
12E
12D
8D
8C
=
8.C
16D
8C
8AA
=
8AA
8AA
8AA
8r
*M3/4
=
8C
8AA
8AA
8AA
8AA
8r
=
!! NEW WORK
!! No. 78
**kern
*clefF4
*k[]
*M2/4
*MM80
=
8.A
16E
8A
24G
24A
24G
=
8E
16D
16D
4D
=
8.A
16E
8A
24G
24A
24G
=
8E
16D
16D
8D
8r
=
8.E
16C
8E
24D
24E
24D
=
8C
16AA
16AA
8AA
8r
=
8.E
16C
8E
24D
24E
24D
=
8C
16AA
16AA
8AA
16r
16C
*M3/4
=
8D
16C
16AA
8C
16AA
16AA
8AA
8r
*M2/4
=
*MM104
8C
16AA
16AA
4AA
=
8AA
8AA
[4AA
=
4.AA]
8AA
8r
=
!! NEW WORK
!! No. 79
**kern
*clefF4
*k[]
*M2/4
*MM112
=
8A
8A
12A
12G#
12A
=
8E
8E
8D
8D
=
8E
8E
12E
12C
12E
=
8C
8C
8AA
8r
=
4D
12D
12C#
12D
=
8C
8C
8AA
8C
=
4AA
8AA
8C
=
8C
[8AA
8AA]
8C
=
2AA
=
4AA
8AA
8r
=
4A
12A
12G#
12A
=
8E
8E
4D
=
4E
12E
12D#
12E
=
8C
8C
8AA
8r
=
4C
12C
12AA
12D
*M3/4
=
4C
8AA
[8AA
4AA]
=
8C
8AA
[2AA
*M2/4
=
4AA]
8AA
8r
=
4E
12E
12D#
12E
=
8C
8C
4AA
=
4C
(12C
12AA)
12D
=
8C
8C
8AA
8r
=
8C
[8AA
4AA]
=
8C
[8AA
4AA]
=
16C
8.AA
[4AA
=
4AA]
8AA
8r
=
4E
12E
12D
12E
=
8C
8C
4AA
=
8C
[8AA
4AA]
*M3/4
=
8C
8AA
8AA
8AA
8AA
*M2/4
=
2AA
=
8C
8C
8AA
8r
=
!! NEW WORK
!! No. 80
**kern
*clefF4
*k[f#]
*M2/4
*MM92
=
2B
=
(8.A
16E)
8.E
16E
=
(8.G
16E)
(8.E
16D#)
=
4.E
8D
*M3/4
=
4E
4E
8E
8r
*M2/4
=
2B
=
(8.A
16E)
8.E
16E
=
8.G
16E
8.E
16D#
=
4.E
8D
*M3/4
=
4E
4E
8E
8r
=
8.A
16A
8A
8r
8.A
16A
*M2/4
=
(4B
4A
=
4G
8E)
8r
=
4B
8A
8A
=
8A
16E
16E
8G
16G
16E
*M3/4
=
4A
4A
8B
8A
*M2/4
=
4G
8E
8D#
=
4E
4E
=
4E
8E
8r
=
!! For the next three measure, it appears that the barlines are misplaced; corrected here
4E
4E
=
4E
4E
=
4E
4G
=
4G
16G
16r
8E
=
4..G
16E
=
8G
8E
8E
8D
*M3/4
=
4E
4E
8E
8r
*M2/4
=
8G
8G
16G
16r
8E
=
4..G
16E
=
8G
8E
8E
8D#
*M3/4
=
4E
4E
8E
8r
=
8E
8E
8E
8r
=
!! NEW WORK
!! No. 81
**kern
*clefF4
*k[b-]
*M2/4
*MM84
=
8A
8A
4A
=
8A
8A
4A
=
8G
8G
4G
=
8A
16F
16F
4F
=
8F
8F
4F
=
8D
8D
8D
8r
=
8F
16F
16F
4F
=
8F
8F
8F
8F
=
8F
8B-
16B-
16B-
8F
=
8G
16F
16F
4F
*M5/8
=
8F
16F
16F
8F
8r
8F
*M2/4
=
8G
8F
4F
=
8F
8F
8F
8r
=
8G
8G
16G
16r
8F
*M3/4
=
[2G
8G]
8G
*M2/4
=
4F
8F
8F
*M3/4
=
8F
8F
8F
8F
8F
8r
*M2/4
=
8.G
16G
16G
16r
8F
*M3/4
=
[2G
8G]
8G
*M2/4
=
4F
8F
8F
*M3/4
=
8F
8F
8F
8F
8F
8r
=
!! NEW WORK
!! No. 82
**kern
*clefF4
*k[]
*M3/4
*MM100
=
2G
8.E
16D
*M2/4
=
4G
4G
=
12E
12D
12D
8D
8r
*M7/8
=
2G
16E
16D
8E
8C
*M3/4
=
4C
8GG
8C
8GG
8r
=
2C
16GG
16C
16C
16C
=
4C
8GG
8GG
8GG
8r
*M2/4
=
2C
=
8GG
8C
4GG
=
8C
16GG
16C
4C
=
8GG
8C
4GG
=
8GG
8GG
4r
*M3/4
=
2C
16GG
16GG
16C
16C
=
4C
8GG
8GG
8GG
8r
*M2/4
=
2C
=
8GG
8C
4GG
=
8GG
8GG
8GG
8GG
=
8GG
8GG
8GG
8GG
=
8GG
8GG
4r
=
*-
*-
